X: 28748
T: My Heather Hills
R: jig
M: 6/8
K: Dmajor
|:A|FGA A2 f|edc B2 d|ABc def|agf e2 A|
FGA A2 f|edc B2 d|ABc def|e3 d2:|
|:f|a2 b agf|g2 a gfe|fed agf|fed e2 A|
FGA A2 f|edc B2 d|ABc def|e3 d2:|

